Sources/FrostedUI/Resources/Icons.xcassets/cameraAdd32.imageset/camera-add-32.svg

<svg width="32" height="32" viewBox="0 0 32 32" fill="none" xmlns="http://www.w3.org/2000/svg" data-fui-icon="true">
  <path
    d="M20 2.25C20.4142 2.25 20.75 2.58579 20.75 3C20.75 3.41421 20.4142 3.75 20 3.75H11.9561C10.9532 3.75009 10.0063 4.2133 9.39062 5.00488L7.88281 6.94434C7.24193 7.7683 6.25578 8.25 5.21191 8.25C3.30006 8.25025 1.75025 9.80006 1.75 11.7119V24.7002C1.75011 26.9368 3.56321 28.7499 5.7998 28.75H26.2002C28.4368 28.7499 30.2499 26.9368 30.25 24.7002V12.5C30.25 12.0858 30.5858 11.75 31 11.75C31.4142 11.75 31.75 12.0858 31.75 12.5V24.7002C31.7499 27.7652 29.2652 30.2499 26.2002 30.25H5.7998C2.73478 30.2499 0.250105 27.7652 0.25 24.7002V11.7119C0.250247 8.97163 2.47163 6.75025 5.21191 6.75C5.79278 6.75 6.34154 6.48186 6.69824 6.02344L8.20703 4.08398C9.10689 2.92702 10.4904 2.25009 11.9561 2.25H20ZM16 9.75C20.0041 9.75 23.25 12.9959 23.25 17C23.25 21.0041 20.0041 24.25 16 24.25C11.9959 24.25 8.75 21.0041 8.75 17C8.75 12.9959 11.9959 9.75 16 9.75ZM16 11.25C12.8244 11.25 10.25 13.8244 10.25 17C10.25 20.1756 12.8244 22.75 16 22.75C19.1756 22.75 21.75 20.1756 21.75 17C21.75 13.8244 19.1756 11.25 16 11.25ZM27 1.75C27.4142 1.75 27.75 2.08579 27.75 2.5V5.75H31C31.4142 5.75 31.75 6.08579 31.75 6.5C31.75 6.91421 31.4142 7.25 31 7.25H27.75V10.5C27.75 10.9142 27.4142 11.25 27 11.25C26.5858 11.25 26.25 10.9142 26.25 10.5V7.25H23C22.5858 7.25 22.25 6.91421 22.25 6.5C22.25 6.08579 22.5858 5.75 23 5.75H26.25V2.5C26.25 2.08579 26.5858 1.75 27 1.75Z"
    fill="currentColor"
  />
</svg>

<svg xmlns="http://www.w3.org/2000/svg" width="32" height="32" fill="none" data-fui-icon="true" viewBox="0 0 32 32"><path fill="currentColor" d="M20 2.25a.75.75 0 0 1 0 1.5h-8.044a3.25 3.25 0 0 0-2.565 1.255l-1.508 1.94A3.38 3.38 0 0 1 5.212 8.25a3.46 3.46 0 0 0-3.462 3.462V24.7a4.05 4.05 0 0 0 4.05 4.05h20.4a4.05 4.05 0 0 0 4.05-4.05V12.5a.75.75 0 0 1 1.5 0v12.2a5.55 5.55 0 0 1-5.55 5.55H5.8A5.55 5.55 0 0 1 .25 24.7V11.712A4.96 4.96 0 0 1 5.212 6.75c.58 0 1.13-.268 1.486-.727l1.509-1.939a4.75 4.75 0 0 1 3.75-1.834zm-4 7.5a7.25 7.25 0 1 1 0 14.5 7.25 7.25 0 0 1 0-14.5m0 1.5a5.75 5.75 0 1 0 0 11.5 5.75 5.75 0 0 0 0-11.5m11-9.5a.75.75 0 0 1 .75.75v3.25H31a.75.75 0 0 1 0 1.5h-3.25v3.25a.75.75 0 0 1-1.5 0V7.25H23a.75.75 0 0 1 0-1.5h3.25V2.5a.75.75 0 0 1 .75-.75"/></svg>
